X:212
T:Onkes nus hom ne fu pris
C:Adam de la Halle
R:Chanson
O:XIIIe
M:6/8
L:1/8
Q:1/4=120
K:F 
V:1
%%continueall 1
%%maxshrink 0.6
%%MIDI program 33
c3 d2e | f3 e2d | c3 c2B | A3 GGF | 
E3 F2G | A2-Az2z | c3 d2e | f3 e2d | 
c3 c2B | A3 GGF | E3 F2G | F2-Fz2z | 
F2A BAG | F2E FAB | A2G2<F2 | A3 B2c | 
d3 e2f | fef e2d | c3 c/2B/2AG | F2E F2G | 
A2-Az2z | A2B c2B | A2G F2E | F3 |]




%%header "$P0	 $IR 	$P1"
%%footer $D - Éditions Galouvielle - 2009 - À usage librement privé dans le cadre familial

